X: 9
T: Ce n'est pas sans
C: Anonymous
%%abc-version 2.0
%%abcx-abcm2ps-target-version 5.9.1 (29 Sep 2008)
%%abc-creator hum2abc beta
%%abcx-conversion-date 2022/03/06 13:05:55
%%abc-copyright Copyright 2018, Kolb, Paul
%%abc-edited-by Zybina, Karina
%%humdrum-veritas 3146355637
%%humdrum-veritas-data 349847775
%%linebreak <none>
%%barnumbers 0
L: 1/4
M: 2/2
N: Derived from Ano0510-Ce_nest_pas_sans.krn
V: 1 clef=treble
V: 2 clef=treble
V: 3 clef=bass
K: F
[V:1] z4 | 
[V:2] z4 | 
[V:3] G,4 | 
[V:1] z4 | 
[V:2] z4 | 
[V:3] A,2A,2 | 
[V:1] G4 | 
[V:2] z4 | 
[V:3] B,2A,G, | 
[V:1] A2A2 | 
[V:2] z4 | 
[V:3] F,4 | 
[V:1] B3A/G/ | 
[V:2] G4 | 
[V:3] G,2B,2 | 
[V:1] F2F2 | 
[V:2] A2A2 | 
[V:3] A,4 | 
[V:1] G2d_e | 
[V:2] B3A/G/ | 
[V:3] G,4 | 
[V:1] dc/B/A2 | 
[V:2] F2F2 | 
[V:3] D4 | 
[V:1] B2G2 | 
[V:2] G2d3/_e/ | 
[V:3] G,4 | 
[V:1] F4 | 
[V:2] dc/B/A2 | 
[V:3] D4 | 
[V:1] z2B2- | 
[V:2] B2G2 | 
[V:3] G,4 | 
[V:1] Bcd2 | 
[V:2] F4 | 
[V:3] B,4 | 
[V:1] G2Bc | 
[V:2] z2G2 | 
[V:3] z4 | 
[V:1] d2G2 | 
[V:2] Bcd2 | 
[V:3] G,4- | 
[V:1] B2G2 | 
[V:2] G2B2 | 
[V:3] G,4 | 
[V:1] zFB3/c/ | 
[V:2] A2G2 | 
[V:3] D2G,2 | 
[V:1] A4 | 
[V:2] F4 | 
[V:3] D4 | 
[V:1] z2B2 | 
[V:2] G4 | 
[V:3] G,4 | 
[V:1] c2c2 | 
[V:2] z2A2 | 
[V:3] A,2C2 | 
[V:1] d3c/B/ | 
[V:2] B2B2 | 
[V:3] B,2A,G, | 
[V:1] A3G | 
[V:2] c2c2 | 
[V:3] F,4 | 
[V:1] B3A/G/ | 
[V:2] d2d2 | 
[V:3] B,3C | 
[V:1] ^F3E | 
[V:2] A4 | 
[V:3] D4 | 
[V:1] G2B2- | 
[V:2] G4- | 
[V:3] G,4 | 
[V:1] Bcde | 
[V:2] G4 | 
[V:3] B,3A, | 
[V:1] f2ed- | 
[V:2] A2G2 | 
[V:3] F,2B,2 | 
[V:1] dcc2- | 
[V:2] E2C2 | 
[V:3] C2A,2 | 
[V:1] c2=B2 | 
[V:2] D4 | 
[V:3] G,4 | 
[V:1] c2e2 | 
[V:2] C4 | 
[V:3] A,2C2 | 
[V:1] d4 | 
[V:2] G4 | 
[V:3] G,4- | 
[V:1] B2A2 | 
[V:2] z4 | 
[V:3] G,2D,2 | 
[V:1] G2F2 | 
[V:2] B2A2 | 
[V:3] E,2F,2 | 
[V:1] B2AB/c/ | 
[V:2] G2F2 | 
[V:3] G,2D,2 | 
[V:1] BA/G/F2 | 
[V:2] B2AB/c/ | 
[V:3] G,2D2 | 
[V:1] B2A2 | 
[V:2] BA/G/F2 | 
[V:3] zG,D2 | 
[V:1] G2zD | 
[V:2] B2A2 | 
[V:3] G,2F,2 | 
[V:1] E2F2 | 
[V:2] G2zD | 
[V:3] E,2D,2 | 
[V:1] G2zD | 
[V:2] E2F2 | 
[V:3] G,2F,2 | 
[V:1] E2F2 | 
[V:2] G2zD | 
[V:3] E,2D,2 | 
[V:1] GBAc | 
[V:2] E2F2 | 
[V:3] zG,F,A, | 
[V:1] BA/G/F2 | 
[V:2] GBAc | 
[V:3] G,2D,2 | 
[V:1] zGA2 | 
[V:2] BA/G/F2 | 
[V:3] G,2D2 | 
[V:1] B2Ad- | 
[V:2] G2F2 | 
[V:3] G,2D,2- | 
[V:1] dcA2 | 
[V:2] D4 | 
[V:3] D,2F,2 | 
[V:1] B2A2- | 
[V:2] G2F2 | 
[V:3] E,G,D,2 | 
[V:1] AGG2- | 
[V:2] G2B2 | 
[V:3] G,4 | 
[V:1] G2^F2 | 
[V:2] A4 | 
[V:3] D4 | 
[V:1] G4 |]  
[V:2] G4 |]  
[V:3] G,4 |]  


